icons/letrina_fill.svg

<svg width="48" height="48" viewBox="0 0 48 48" fill="none" xmlns="http://www.w3.org/2000/svg">
<path fill-rule="evenodd" clip-rule="evenodd" d="M34 6H14C12.8954 6 12 6.89543 12 8V13.4072L14.8979 10.3161L16.357 11.6839L12 16.3314V18.4072L14.8979 15.3161L16.357 16.6839L12 21.3314V23.4072L14.8979 20.3161L16.357 21.6839L12 26.3314V28.4072L14.8979 25.3161L16.357 26.6839L12 31.3314V33.4072L14.8979 30.3161L16.357 31.6839L12 36.3314V40C12 41.1046 12.8954 42 14 42H34C35.1046 42 36 41.1046 36 40V36.3234L31.6505 31.6839L33.1095 30.3161L36 33.3992V31.3234L31.6505 26.6839L33.1095 25.3161L36 28.3992V26.3234L31.6505 21.6839L33.1095 20.3161L36 23.3992V21.3234L31.6505 16.6839L33.1095 15.3161L36 18.3992V16.3234L31.6505 11.6839L33.1095 10.3161L36 13.3992V8C36 6.89543 35.1046 6 34 6ZM14 4C11.7909 4 10 5.79086 10 8V40C10 42.2091 11.7909 44 14 44H34C36.2091 44 38 42.2091 38 40V8C38 5.79086 36.2091 4 34 4H14ZM28.1894 8.17983C29.8177 8.68626 31 10.2051 31 12V35C31 36.1995 30.472 37.2756 29.6358 38.0088C29.0282 38.5415 28.2578 38.8931 27.4089 38.9793C27.2745 38.993 27.1381 39 27 39H21C20.1716 39 19.4019 38.7482 18.7635 38.3169C17.6995 37.598 17 36.3807 17 35V12C17 9.79086 18.7908 8 21 8H27C26.9999 8 27 8 27 8C27.4142 8.00001 27.8137 8.06296 28.1894 8.17983ZM19.8817 36.6584C20.2009 36.8741 20.5857 37 21 37H27C27.069 37 27.1372 36.9965 27.2044 36.9897C27.6247 36.947 28.0066 36.7742 28.309 36.5121C28.7322 36.1454 29 35.604 29 35V13.9863C28.9926 12.888 28.1 12 27 12H21C19.8954 12 19 12.8954 19 14V35C19 35.6903 19.3497 36.299 19.8817 36.6584ZM25.875 18C25.875 19.1046 25.0355 20 24 20C22.9645 20 22.125 19.1046 22.125 18C22.125 16.8954 22.9645 16 24 16C25.0355 16 25.875 16.8954 25.875 18Z" fill="black"/>
</svg>

<svg
  xmlns="http://www.w3.org/2000/svg"
  width="24"
  height="24"
  viewBox="0 0 24 24"
  fill="none"
  stroke="currentColor"
  stroke-width="2"
  stroke-linecap="round"
  stroke-linejoin="round"
>
  <path
    fill-rule="evenodd"
    d="M34 6H14a2 2 0 0 0-2 2v5.407l2.898-3.09 1.459 1.367L12 16.33v2.076l2.898-3.09 1.459 1.367L12 21.33v2.076l2.898-3.09 1.459 1.367L12 26.33v2.076l2.898-3.09 1.459 1.367L12 31.33v2.076l2.898-3.09 1.459 1.367L12 36.33V40a2 2 0 0 0 2 2h20a2 2 0 0 0 2-2v-3.677l-4.35-4.64 1.46-1.367L36 33.4v-2.076l-4.35-4.64 1.46-1.367L36 28.4v-2.076l-4.35-4.64 1.46-1.367L36 23.4v-2.076l-4.35-4.64 1.46-1.367L36 18.4v-2.076l-4.35-4.64 1.46-1.367L36 13.4V8a2 2 0 0 0-2-2M14 4a4 4 0 0 0-4 4v32a4 4 0 0 0 4 4h20a4 4 0 0 0 4-4V8a4 4 0 0 0-4-4zm14.19 4.18A4 4 0 0 1 31 12v23a4 4 0 0 1-1.364 3.009A3.98 3.98 0 0 1 27 39h-6a3.996 3.996 0 0 1-4-4V12a4 4 0 0 1 4-4h6c.414 0 .814.063 1.19.18m-8.308 28.478c.319.216.704.342 1.118.342h6q.103 0 .204-.01c.42-.043.803-.216 1.105-.478.423-.367.691-.908.691-1.512V13.986A2 2 0 0 0 27 12h-6a2 2 0 0 0-2 2v21c0 .69.35 1.299.882 1.658M25.875 18c0 1.105-.84 2-1.875 2s-1.875-.895-1.875-2 .84-2 1.875-2 1.875.895 1.875 2"
    clip-rule="evenodd"
  />
</svg>
